X:787
T:Highland Cradle Song
C:Joe Buchanan's Scottish Tome - Page 537.1
I:537 1
Z:Carl Allison
R:Slow Air
L:1/4
M:3/4
K:A
E | "A"E> A B | c2 d | (c3 | "E7"B3) | E G> A | B2 c | "A"B A F | E2 E |
E A>B | c2 d | c3 | "E7"B2 e | "E7"e E G | c2 B | "A"A>c c/B/ | A2 e |
"Bm"e d2 | F2 "Ddim"d | "A"d c2 | E2 c | "Bm"c B2 | "Bm"D2 B | "D"B A>F | "A"E2 e |
"Bm"e d2 | F2 "Ddim"d | "A"d c2 | E2 c | "E7"c B>c | "Bm"d F G | "A"A>B c/B/ | A3 :|
